static/assets/images/exchanges/iziswap.svg

<svg width="245" height="256" viewBox="0 0 245 256" fill="none" xmlns="http://www.w3.org/2000/svg">
<path d="M1.45718 115.631L81.7604 0L122.344 58.6787L81.1848 117.07H2.32065C2.03283 117.07 2.03283 117.07 1.745 116.782C1.45718 116.782 1.45718 116.494 1.45718 116.494V115.919C1.16935 115.919 1.45718 115.919 1.45718 115.631ZM242.943 115.631L162.639 0L122.344 58.6787L163.215 117.357H242.079C242.367 117.357 242.367 117.357 242.655 117.07C242.943 117.07 242.943 116.782 242.943 116.782V116.207C243.23 115.919 242.943 115.919 242.943 115.631Z" fill="#BEE2F1"/>
<path d="M244.382 132.315C244.67 148.422 241.503 164.53 235.459 179.488C229.415 194.445 220.492 208.252 208.979 219.757C197.466 231.263 183.938 240.467 169.259 246.508C154.58 252.548 138.462 256 122.056 256C105.938 256 89.8195 252.836 74.8526 246.508C59.8857 240.18 46.3579 231.263 35.1327 219.757C23.9075 208.252 14.6971 194.733 8.65281 179.488C2.8963 164.53 -0.269773 148.422 0.018052 132.315H77.7309C77.7309 138.355 78.5943 144.108 80.8969 149.573C83.1995 155.038 86.3656 160.216 90.3952 164.243C94.4247 168.557 99.6056 171.721 105.074 174.022C110.543 176.324 116.299 177.474 122.344 177.474C128.388 177.474 134.145 176.324 139.613 174.022C145.082 171.721 149.975 168.27 154.292 164.243C158.322 159.928 161.776 155.038 163.791 149.573C166.093 144.108 166.957 138.067 166.957 132.315H244.382Z" fill="#33A9C9"/>
</svg>

<svg xmlns="http://www.w3.org/2000/svg" fill="none" viewBox="0 0 245 256"><path fill="#BEE2F1" d="M1.457 115.631 81.76 0l40.584 58.679-41.16 58.391H2.322c-.288 0-.288 0-.576-.288-.288 0-.288-.288-.288-.288v-.575c-.288 0 0 0 0-.288m241.486 0L162.639 0l-40.295 58.679 40.871 58.678h78.864c.288 0 .288 0 .576-.287.288 0 .288-.288.288-.288v-.575c.287-.288 0-.288 0-.576"/><path fill="#33A9C9" d="M244.382 132.315c.288 16.107-2.879 32.215-8.923 47.173s-14.967 28.764-26.48 40.269c-11.513 11.506-25.041 20.71-39.72 26.751-14.679 6.04-30.797 9.492-47.203 9.492-16.118 0-32.236-3.164-47.203-9.492s-28.495-15.245-39.72-26.751c-11.226-11.505-20.436-25.024-26.48-40.269C2.896 164.53-.27 148.422.018 132.315h77.713c0 6.04.863 11.793 3.166 17.258s5.469 10.643 9.498 14.67c4.03 4.314 9.21 7.478 14.679 9.779q8.203 3.453 17.27 3.452t17.269-3.452c5.469-2.301 10.362-5.752 14.679-9.779 4.03-4.315 7.484-9.205 9.499-14.67 2.302-5.465 3.166-11.506 3.166-17.258z"/></svg>
